assets/icons/desitination.svg

<svg width="39" height="37" viewBox="0 0 39 37" fill="none" xmlns="http://www.w3.org/2000/svg">
<g clip-path="url(#clip0)">
<path d="M32.2903 21.8783C29.065 20.5626 24.8776 19.7938 20.3998 19.6848V14.658C22.8489 13.6725 24.8877 14.2798 27.4232 15.036C29.282 15.5904 31.3254 16.2 33.7626 16.1999C34.5876 16.1999 35.458 16.13 36.3811 15.9645C36.7684 15.895 37.0886 15.6304 37.2218 15.2695C37.355 14.9087 37.2813 14.5061 37.028 14.2124L33.1088 9.66664L37.0384 4.96995C37.3313 4.61984 37.3688 4.12911 37.1325 3.74065C36.8963 3.3522 36.4363 3.14823 35.9802 3.23011C32.8618 3.78899 30.4264 3.06292 28.0712 2.36054C25.6831 1.64819 23.2256 0.916519 20.3998 1.75664V1.52086C20.3998 0.925927 19.9045 0.443604 19.2934 0.443604C18.6824 0.443604 18.1871 0.925927 18.1871 1.52086V19.6848C13.7094 19.7938 9.5219 20.5626 6.29661 21.8783C2.50146 23.4264 0.411377 25.6003 0.411377 27.9992C0.411377 30.3982 2.50146 32.5721 6.29661 34.1202C9.78633 35.5438 14.402 36.3277 19.2934 36.3277C24.1849 36.3277 28.8006 35.5437 32.2903 34.1202C36.0854 32.5721 38.1755 30.3983 38.1755 27.9992C38.1755 25.6002 36.0854 23.4264 32.2903 21.8783ZM20.3999 4.0425C22.8488 3.0571 24.8876 3.66431 27.4232 4.42047C29.2585 4.96779 31.274 5.56897 33.6705 5.58405L30.8154 8.99652C30.4801 9.39733 30.4845 9.97359 30.8259 10.3695L33.9924 14.0424C31.7822 14.0822 29.9022 13.522 28.0713 12.976C25.6833 12.2638 23.2256 11.532 20.3999 12.3723V4.0425ZM19.2934 28.6432C19.9045 28.6432 20.3998 28.1609 20.3998 27.566V26.2756C22.2071 26.3408 23.9046 26.5645 25.2664 26.9224C26.8329 27.3342 27.4571 27.7936 27.6151 27.9887C27.4571 28.1837 26.833 28.6431 25.2664 29.055C23.6295 29.4852 21.5083 29.7222 19.2934 29.7222C17.0786 29.7222 14.9574 29.4853 13.3205 29.055C11.754 28.6432 11.1298 28.1837 10.9718 27.9887C11.1298 27.7936 11.7539 27.3342 13.3205 26.9224C14.6823 26.5645 16.3798 26.3408 18.1871 26.2756V27.566C18.1871 28.1609 18.6824 28.6432 19.2934 28.6432ZM19.2934 34.1733C9.4699 34.1733 2.62412 30.9195 2.62412 27.9993C2.62412 25.1901 8.96001 22.0728 18.1871 21.8398V24.1198C15.9697 24.1938 13.9051 24.4891 12.2843 24.9709C11.2993 25.2637 10.5084 25.617 9.9334 26.0211C8.93995 26.7192 8.73144 27.4765 8.73144 27.9887C8.73144 28.5009 8.93995 29.258 9.9334 29.9562C10.5084 30.3603 11.2994 30.7136 12.2843 31.0064C14.1721 31.5675 16.6613 31.8766 19.2934 31.8766C21.9256 31.8766 24.4149 31.5676 26.3026 31.0064C27.2876 30.7136 28.0785 30.3603 28.6535 29.9562C29.6469 29.258 29.8555 28.5009 29.8555 27.9887C29.8555 27.4765 29.6469 26.7192 28.6535 26.0211C28.0785 25.617 27.2875 25.2637 26.3026 24.9709C24.6818 24.4891 22.6171 24.1938 20.3998 24.1198V21.8398C29.6269 22.0728 35.9628 25.1901 35.9628 27.9993C35.9628 30.9195 29.117 34.1733 19.2934 34.1733Z" fill="black"/>
</g>
<defs>
<clipPath id="clip0">
<rect width="37.7641" height="36.7703" fill="white" transform="translate(0.411377 -0.000244141)"/>
</clipPath>
</defs>
</svg>

<svg width="39" height="37" fill="none" xmlns="http://www.w3.org/2000/svg"><g clip-path="url(#clip0)"><path d="M32.29 21.878c-3.225-1.315-7.412-2.084-11.89-2.193v-5.027c2.449-.986 4.488-.378 7.023.378 1.859.554 3.902 1.164 6.34 1.164.825 0 1.695-.07 2.618-.236.387-.069.708-.334.84-.694.134-.361.06-.764-.193-1.058l-3.92-4.545 3.93-4.697c.293-.35.33-.84.095-1.23a1.117 1.117 0 00-1.153-.51c-3.118.559-5.554-.167-7.909-.87-2.388-.712-4.845-1.443-7.671-.603V1.52c0-.595-.495-1.077-1.107-1.077-.61 0-1.106.482-1.106 1.077v18.164c-4.478.109-8.665.878-11.89 2.193C2.5 23.426.41 25.6.41 28c0 2.4 2.09 4.573 5.886 6.121 3.49 1.424 8.105 2.208 12.996 2.208 4.892 0 9.508-.784 12.997-2.208 3.795-1.548 5.886-3.722 5.886-6.12 0-2.4-2.09-4.574-5.886-6.122zM20.4 4.043c2.449-.986 4.488-.379 7.023.377 1.836.548 3.851 1.149 6.247 1.164l-2.855 3.413c-.335.4-.33.977.01 1.373l3.167 3.672c-2.21.04-4.09-.52-5.92-1.066-2.389-.712-4.846-1.444-7.672-.604v-8.33zm-1.107 24.6c.611 0 1.107-.482 1.107-1.077v-1.29c1.807.065 3.505.288 4.866.646 1.567.412 2.191.872 2.35 1.067-.159.195-.783.654-2.35 1.066-1.636.43-3.758.667-5.973.667-2.214 0-4.336-.237-5.973-.667-1.566-.412-2.19-.871-2.348-1.066.158-.195.782-.655 2.348-1.067 1.362-.358 3.06-.581 4.867-.646v1.29c0 .595.495 1.077 1.106 1.077zm0 5.53C9.47 34.173 2.624 30.92 2.624 28c0-2.809 6.336-5.926 15.563-6.16v2.28c-2.217.075-4.282.37-5.903.852-.985.293-1.776.646-2.35 1.05-.994.698-1.203 1.456-1.203 1.968s.209 1.269 1.202 1.967c.575.404 1.366.758 2.351 1.05 1.888.561 4.377.87 7.01.87 2.632 0 5.12-.308 7.009-.87.985-.292 1.775-.646 2.35-1.05.994-.698 1.203-1.455 1.203-1.967s-.21-1.27-1.203-1.968c-.575-.404-1.365-.757-2.35-1.05-1.621-.482-3.686-.777-5.903-.851v-2.28c9.227.233 15.563 3.35 15.563 6.16 0 2.92-6.846 6.173-16.67 6.173z" fill="#000"/></g><defs><clipPath id="clip0"><path fill="#fff" transform="translate(.411)" d="M0 0h37.764v36.77H0z"/></clipPath></defs></svg>
